/* XPM */
static char *dummy[]={
"64 50 1159 2",
"Qt c None",
".f c #000000",
"gG c #000000",
"#1 c #7f7f00",
".i c #005555",
"ls c #555500",
"l3 c #404040",
"hC c #7f4040",
"b4 c #000000",
"oQ c #2a2a2a",
"kS c #55552a",
"fO c #555555",
"e1 c #202040",
"cD c #606060",
".g c #393939",
".o c #404055",
".x c #3b3b4e",
"hD c #373749",
"dJ c #6d6d5b",
"i7 c #666655",
"bw c #404050",
"j1 c #3c3c3c",
".d c #3c4b4b",
"dK c #4b5a69",
"#e c #474747",
"oi c #313131",
".# c #293333",
"#u c #a3a38f",
"mE c #5e5e4c",
".e c #404952",
"ez c #6e665d",
"h. c #635a52",
".h c #464d4d",
"af c #3c433c",
"kp c #505049",
"nJ c #50505f",
"ge c #394047",
".w c #252c1f",
".a c #355935",
"lr c #655f4d",
"ax c #444953",
"oh c #636353",
"bN c #5c5c52",
"b3 c #53534a",
"iD c #6a655c",
"ck c #59626e",
"fm c #736e62",
"n# c #525a63",
"kT c #39393d",
"n. c #615d51",
"aw c #423e3e",
"cC c #595951",
"#f c #434b56",
".M c #474b56",
".1 c #474f5a",
"lt c #3f3f46",
"ag c #434a55",
"l2 c #534f44",
"dk c #62697a",
"gF c #868372",
"qe c #585548",
"cj c #575754",
".p c #475059",
".L c #2d332d",
"cE c #53595f",
"eA c #3b3e46",
"lm c #6a6761",
".j c #3c4248",
"h8 c #3f3f45",
"cZ c #61697a",
".n c #282d2d",
"j0 c #59574f",
"b5 c #232326",
"h# c #3c4146",
"aM c #413e3e",
"fP c #484e58",
".s c #304130",
"bO c #2d3236",
"cF c #51535a",
".b c #2a332f",
"nI c #605c4e",
"a0 c #434340",
"ph c #5e5c4e",
"cY c #636156",
"lq c #5a584b",
"dj c #6e6c60",
"l4 c #464c54",
"#v c #47505a",
"h7 c #6a665a",
"e. c #706e5e",
"gd c #999581",
"e# c #4c525e",
".0 c #6f6f5f",
"pi c #32363a",
"l1 c #46463e",
"be c #434340",
"bf c #383f4a",
"iE c #44484f",
"bv c #444440",
"#2 c #393e49",
"lp c #666456",
"fn c #363940",
"ln c #6f6c64",
"ll c #59564f",
"#M c #33383f",
"lo c #67655c",
"jy c #595850",
"e0 c #706b5e",
"#L c #acae9b",
"aN c #393f4b",
"i8 c #42474e",
".c c #2e522c",
"kq c #3a3c40",
".m c #2e3434",
"oP c #615e51",
"gf c #3f434b",
"a1 c #363c46",
"hB c #646257",
"oR c #35373c",
"#d c #505250",
"l0 c #58554b",
"jz c #3e4148",
"mD c #4c4a42",
"kR c #615d52",
"gH c #3b3f45",
".y c #47505b",
"mF c #4b515a",
"fN c #8b8776",
"oj c #494e56",
"cB c #595853",
"#t c #5c5d56",
"i6 c #57554e",
"ci c #696963",
"c0 c #626a79",
"dL c #606978",
".v c #3f873d",
"qd c #59564a",
"j2 c #3b3d42",
"pz c #191a1a",
"py c #1a1a1a",
"pI c #1a1b1b",
"pA c #1b1b1b",
"pB c #1d1d1b",
"pP c #1e1e20",
"pQ c #1f1f21",
"px c #20201f",
"pO c #222224",
"pY c #242425",
"pN c #242529",
"pZ c #252526",
"p0 c #252528",
"pT c #25262a",
"pU c #262629",
"pH c #26282b",
"pV c #28292a",
"pR c #28292c",
"pJ c #292a2d",
"p6 c #2a292a",
"p1 c #2a2a29",
"pS c #2a2b2d",
"q. c #2b2a29",
"pX c #2b2a2b",
"p9 c #2b2b29",
"p3 c #2b2b2a",
"pL c #2b2d31",
"pW c #2c2c2c",
"pG c #2c2c2e",
"pF c #2c2d2f",
"p2 c #2e2d2b",
"p4 c #2e2d2c",
"pK c #2e2f35",
"p5 c #2f2e2d",
"p7 c #2f2f2f",
"pM c #313134",
"q# c #36342f",
"p8 c #363633",
"pp c #373635",
"pq c #3a3836",
"pE c #3c3a36",
"pj c #3c4045",
"po c #3e3e3f",
"qb c #403e37",
"pr c #403f3c",
"pD c #424038",
"pt c #42413c",
"pl c #42464e",
"pC c #434139",
"ps c #43433f",
"pu c #45443c",
"pn c #454546",
"pm c #45474b",
"pk c #464c56",
"qa c #47453c",
"pw c #49463e",
"pv c #4c4941",
"qc c #4e4c42",
"m9 c #525046",
"hE c #3d4146",
"bM c #5f6260",
"bx c #363c45",
"nK c #525964",
".t c #444e57",
"dI c #757263",
"g9 c #908c7a",
"e2 c #353940",
"ko c #4a4843",
"b6 c #626871",
"lZ c #45433e",
"#0 c #6c6e64",
"ey c #696659",
".H c #2f3931",
".k c #363d41",
".E c #49525b",
"iC c #58564e",
"nH c #615d50",
"gE c #b7b49a",
".q c #3d484c",
".D c #3f484f",
"cX c #5d5c54",
"og c #636052",
"fl c #8f8b78",
".l c #2d3432",
"gg c #414349",
"na c #525863",
"dl c #616a7a",
"#W c #181a1a",
"#G c #191b1b",
"aF c #191b1c",
"#H c #191c1b",
"a. c #191c1c",
"o2 c #1a1b1a",
"ow c #1a1b1b",
"ap c #1a1b1c",
"#X c #1a1c1c",
"#I c #1a1d1c",
"kC c #1b1b1b",
"kd c #1b1c1b",
"k6 c #1b1c1c",
"aK c #1b1c1d",
"aG c #1b1d1d",
"#U c #1b1d1e",
"#p c #1b1e1c",
"#q c #1b1e1d",
"k5 c #1c1c1c",
"lH c #1c1c1d",
"kc c #1c1d1c",
"au c #1c1d1d",
"a# c #1c1d1e",
"#r c #1c201e",
"iO c #1d1d1d",
"k4 c #1d1d1e",
"kb c #1d1e1d",
"mg c #1d1e1f",
"bS c #1d1e20",
"#V c #1d1f1f",
"hP c #1e1d1d",
"jO c #1e1e1d",
"il c #1e1e1e",
"kD c #1e1e1f",
"oo c #1e1e20",
"aV c #1e1f20",
"mT c #1e1f21",
"hm c #1f1e1e",
"kW c #1f1e20",
"aU c #1f1f1f",
"hi c #1f1f20",
"k7 c #1f1f21",
"ad c #1f201f",
"ar c #1f2021",
"nQ c #201f20",
"nR c #20201f",
"op c #202020",
"hQ c #202021",
"mR c #202022",
"aH c #202121",
"o7 c #202123",
"b9 c #202223",
"mQ c #212022",
"nr c #212120",
"kB c #212121",
"jH c #212122",
"oq c #22211f",
"gU c #222120",
"ku c #222122",
"ov c #222123",
"iQ c #222222",
"ik c #222223",
"ly c #222224",
"aa c #222323",
"mf c #222325",
".3 c #222527",
"bo c #222529",
"o3 c #232220",
"k3 c #232223",
"gQ c #232224",
"hU c #232322",
"in c #232323",
"lx c #232325",
"o9 c #232326",
"#Z c #232421",
"iU c #242321",
"gP c #242323",
"lz c #242326",
"ka c #242423",
"jK c #242425",
"iP c #242426",
"n3 c #242427",
"mi c #242428",
"aZ c #242524",
"aq c #242525",
"io c #242526",
"nS c #252423",
"hn c #252426",
"kF c #252525",
"kt c #252526",
"jI c #252527",
"e5 c #252528",
"mS c #252629",
"jL c #262525",
"aI c #262626",
"hT c #262627",
"nY c #262628",
"fp c #262629",
"#F c #262725",
"by c #262729",
"oy c #26272b",
"jl c #272524",
"go c #272526",
"gT c #272627",
"e7 c #272728",
"fs c #272729",
"eF c #27272b",
"iR c #272829",
"iM c #27282a",
"gm c #27292a",
"gV c #282728",
"gN c #282729",
"kA c #28272a",
"oE c #282828",
"oD c #282829",
"fT c #28282a",
"k9 c #28282b",
"n0 c #28282c",
"aL c #282926",
"ih c #28292b",
"mk c #28292c",
"ox c #28292d",
"co c #282a2d",
"bn c #282b2e",
"mc c #292825",
"iV c #292826",
"oH c #292828",
"gp c #292829",
"jh c #29282a",
"jN c #29292a",
"jJ c #29292b",
"ft c #29292c",
"mP c #29292d",
"jf c #292a2c",
"hM c #292a2d",
"mj c #292a2e",
"nn c #292b2f",
"bR c #292b30",
"or c #2a2825",
"kv c #2a2829",
"gu c #2a2927",
"fY c #2a2929",
"as c #2a2a29",
"ig c #2a2a2a",
"gR c #2a2a2b",
"hl c #2a2a2c",
"fS c #2a2a2d",
"l. c #2a2b2c",
"hR c #2a2b2d",
"je c #2a2b2e",
"o8 c #2a2b2f",
"nZ c #2a2c30",
".V c #2a322c",
"pa c #2b2a29",
"nw c #2b2a2a",
"o6 c #2b2a2c",
"p# c #2b2b2a",
"jk c #2b2b2b",
"e8 c #2b2b2e",
"ab c #2b2c2b",
"oB c #2b2c2c",
"b. c #2b2c2d",
"nm c #2b2c2f",
"aY c #2b2d2e",
"bF c #2b2d2f",
"mU c #2b2d30",
"aQ c #2b2d31",
"fr c #2b2e32",
"a9 c #2b2e33",
"#E c #2b2f2e",
".G c #2b3d2c",
"n9 c #2c2b29",
"eJ c #2c2b2b",
"on c #2c2b2e",
"mZ c #2c2c29",
"lA c #2c2c2c",
"n6 c #2c2c2d",
"hK c #2c2c2e",
"eI c #2c2d2d",
"me c #2c2d2f",
"gL c #2c2d30",
"hO c #2c2d31",
"lG c #2c2e2e",
"lF c #2c2e2f",
"aW c #2c2f32",
".O c #2c3135",
"ao c #2c3136",
".J c #2c362f",
".K c #2c3e2c",
"nT c #2d2c28",
"hV c #2d2c2c",
"nP c #2d2c2d",
"oF c #2d2d2b",
"mY c #2d2d2c",
"gq c #2d2d2e",
"ng c #2d2d2f",
"ks c #2d2d30",
"fv c #2d2e30",
"hj c #2d2e31",
"ij c #2d2e32",
"mh c #2d2e33",
"lJ c #2d2f33",
"fQ c #2d2f34",
"#9 c #2d3033",
"is c #2e2c28",
"n8 c #2e2d2b",
"mq c #2e2d2c",
"kX c #2e2d2e",
"jM c #2e2e2e",
"nN c #2e2e2f",
"iT c #2e2e30",
"gW c #2e2e31",
"eq c #2e2f30",
"p. c #2e2f31",
"nX c #2e2f32",
"ii c #2e2f33",
"#o c #2e302e",
"ep c #2e3031",
"hg c #2e3033",
"nl c #2e3034",
"lI c #2e3035",
"a7 c #2e3239",
"cn c #2e333a",
"bm c #2e343c",
"jP c #2f2e2c",
"n7 c #2f2e2d",
"ir c #2f2f2d",
"nx c #2f2f2e",
"hq c #2f2f2f",
"fZ c #2f2f30",
"ou c #2f2f31",
"gk c #2f2f33",
"gj c #2f3033",
"kr c #2f3034",
"im c #2f3133",
"ji c #2f3134",
"kU c #2f3135",
"fR c #2f3236",
"aE c #2f3338",
"b8 c #2f3339",
"#Y c #2f353b",
".W c #2f3936",
"gv c #302f2d",
"kw c #302f30",
"oG c #30302d",
"n5 c #303030",
"er c #303132",
"e6 c #303133",
"ef c #303134",
"gi c #303135",
"hf c #303235",
"fq c #303236",
"#J c #303336",
"k8 c #303337",
"a8 c #303338",
"e4 c #303339",
"cI c #303741",
"lB c #312f2e",
"mr c #31302d",
"nv c #31302e",
"ms c #313030",
"gt c #313131",
"oC c #313133",
"fW c #313134",
"ho c #313235",
"md c #313236",
"fU c #313336",
"ie c #313337",
"fu c #313338",
"no c #313339",
"eE c #31333a",
"a2 c #31353a",
"fo c #31353b",
"ed c #31353c",
"#b c #313635",
"ac c #313740",
".F c #313a39",
"hr c #32302c",
"cR c #32312f",
"lb c #323130",
"oA c #323132",
"mn c #323233",
"j9 c #323235",
"av c #32332e",
"fy c #323333",
"gX c #323334",
"fV c #323336",
"gl c #323337",
"gM c #323338",
"e9 c #323435",
"eH c #323437",
"hS c #323438",
"iN c #323439",
"gh c #32353b",
"#a c #323837",
".Y c #323c3b",
"lC c #33312f",
"iW c #33322f",
"o. c #333230",
"pb c #333232",
"f0 c #333234",
"fx c #333330",
"mo c #333333",
"hp c #333336",
"ns c #333435",
"iq c #333436",
"hh c #333437",
"j. c #333438",
"jg c #333439",
"eg c #333538",
"gS c #33353a",
"dP c #33363b",
"eD c #33363e",
"aA c #33373e",
"at c #333b46",
".I c #333c3a",
"b7 c #333c47",
"it c #34322c",
"j5 c #343330",
"fX c #343332",
"mp c #343432",
"ky c #343433",
"k2 c #343439",
"ml c #343538",
"gr c #343539",
"lw c #343639",
"kE c #34363a",
"hN c #34363b",
"k# c #34373b",
"eG c #34373c",
"e3 c #34373e",
"bh c #34383f",
"bi c #343940",
"#h c #343a44",
".Z c #343b36",
"nh c #35332f",
"cS c #353430",
"kx c #353431",
"nu c #353433",
"nO c #353434",
"mI c #353436",
"jp c #353534",
"la c #353535",
"gY c #353538",
"mX c #353637",
"f1 c #353639",
"iS c #35373a",
"jj c #35373b",
"hk c #35373c",
"gs c #35383c",
"gK c #35383d",
"aJ c #353d4a",
".X c #353f40",
".u c #35453d",
"pe c #363430",
"m1 c #363534",
"nt c #363634",
"bV c #363636",
"hL c #363637",
"kz c #36363b",
"ip c #36373a",
"n1 c #36373b",
"eK c #363837",
"ee c #36383f",
"#T c #363c41",
".C c #363e41",
"al c #363e48",
"bQ c #363e49",
"pd c #373530",
"lO c #373635",
"n4 c #373737",
"oX c #373738",
"j4 c #373837",
"gn c #373839",
"f2 c #37383b",
"l# c #37383c",
"k. c #37383d",
"bp c #373a3e",
"mV c #373a3f",
"#y c #373e48",
"#6 c #373e49",
"#Q c #373f49",
"kY c #383635",
"cT c #383733",
"cw c #383737",
"fw c #38383a",
"iK c #383a3d",
"he c #383a3e",
"kV c #383a3f",
".U c #383c39",
"d0 c #383c41",
"dO c #383c43",
"bg c #383e47",
"#5 c #383f4a",
".z c #384045",
"nU c #393630",
"o5 c #393631",
"o1 c #393731",
"lD c #393733",
"jm c #393735",
"gw c #393737",
"oK c #393833",
"j6 c #393834",
"kG c #393836",
"iX c #393936",
"lQ c #393937",
"iI c #39393b",
"j# c #393a3e",
"gO c #393b3e",
"dQ c #393b3f",
"gI c #393c42",
"d1 c #393d43",
"bA c #393e46",
"a4 c #393e48",
"#O c #39404c",
"c5 c #394251",
"#K c #3a3934",
"n2 c #3a3936",
"cx c #3a3937",
"fz c #3a3939",
"oz c #3a393b",
"f3 c #3a3a3a",
"k1 c #3a3a3c",
"ke c #3a3b3c",
"oV c #3a3b3e",
"oW c #3a3c40",
"jA c #3a3d41",
"#A c #3a424d",
"cm c #3a4352",
"f4 c #3b3835",
"pc c #3b3a36",
"m0 c #3b3a38",
"m2 c #3b3b39",
"l8 c #3b3b3d",
"id c #3b3c3d",
"iH c #3b3c3f",
"mm c #3b3c40",
"hH c #3b3d42",
"cG c #3b3d43",
"d2 c #3b3e41",
"ha c #3b3e44",
"bB c #3b4048",
"bz c #3b414b",
"#P c #3b424f",
"mb c #3c3934",
"oL c #3c3a36",
"lS c #3c3a37",
"lP c #3c3b39",
"jo c #3c3c3b",
"j8 c #3c3c3c",
"jb c #3c3c3d",
"lM c #3c3d3e",
"ja c #3c3d3f",
"l7 c #3c3e40",
"j3 c #3c3e41",
"hb c #3c3e43",
"i. c #3c3f44",
"#c c #3c4041",
"bj c #3c414a",
"dc c #3d3b38",
"fb c #3d3c3a",
"mt c #3d3c3b",
"ej c #3d3c3c",
"hW c #3d3d3b",
"dS c #3d3d3d",
"hI c #3d3d40",
"f. c #3d3e3e",
"gZ c #3d3e41",
"eh c #3d3f43",
".r c #3d843c",
"os c #3e3b35",
"oJ c #3e3c36",
"ek c #3e3c39",
"j7 c #3e3d3a",
"gx c #3e3d3b",
"mJ c #3e3d3d",
"es c #3e3e3c",
"lN c #3e3e3e",
"dR c #3e3e40",
"lK c #3e3e41",
"ae c #3e3f39",
"#s c #3e3f3d",
"nd c #3e3f3f",
"eo c #3e3f40",
"jB c #3e4043",
"i# c #3e4146",
"i9 c #3e4147",
"a3 c #3e434d",
"#D c #3e4750",
"cH c #3e4857",
"oY c #3f3e3b",
"cy c #3f3e3c",
"fA c #3f3e3f",
"eL c #3f3f40",
"dZ c #3f4043",
"gJ c #3f4044",
"np c #3f4143",
"iG c #3f4145",
"jG c #3f4146",
"om c #3f4147",
"if c #3f4247",
"## c #3f4547",
"#z c #3f4754",
"#8 c #3f4856",
"kZ c #403e39",
"lR c #403f3a",
"nW c #403f3c",
"nf c #403f3e",
"jn c #403f3f",
"dp c #404141",
"ei c #404244",
"hG c #404348",
"cl c #40434a",
"iF c #40444a",
"aP c #404550",
"aO c #404751",
"#4 c #404857",
".B c #404950",
"oZ c #41403b",
"nq c #41403e",
"l9 c #41403f",
"ne c #414040",
"jd c #414140",
"hJ c #414141",
"ib c #414245",
"hc c #414248",
"ia c #414348",
"oU c #41444a",
"hF c #41454c",
"l5 c #41454d",
"ec c #41454e",
"bG c #41474f",
"bE c #414750",
".9 c #41494f",
"#w c #414956",
"ak c #414958",
"#S c #414a58",
"an c #414a59",
"oI c #424038",
"fc c #42403e",
"dd c #42413d",
"dT c #42423f",
"ic c #424242",
"le c #424243",
"mW c #424549",
"iL c #42454a",
"h9 c #42454b",
"lv c #424750",
"bP c #424953",
"ay c #424a57",
"#i c #424a58",
"#k c #424b58",
"#x c #424b5a",
"ni c #434139",
"f5 c #43413a",
"lE c #43413b",
"o0 c #43423b",
"f6 c #434240",
"fB c #434344",
"jS c #434444",
"nM c #434549",
"l6 c #434750",
"aX c #434a56",
"#g c #434b59",
".2 c #434c5a",
"aD c #434c5b",
"#m c #434e5c",
"ob c #44423b",
"fa c #44423e",
"jc c #444341",
"kJ c #444443",
"bU c #444545",
"dq c #444546",
"cQ c #44474a",
"bW c #44494e",
"eC c #444953",
"#j c #444d5c",
"#. c #444e5b",
"hs c #45433a",
"o# c #45433b",
"el c #45433d",
"kn c #454340",
"m. c #454440",
"mK c #454441",
"iJ c #454442",
"ol c #454953",
"#n c #454a51",
"eB c #454a54",
"aT c #454e5d",
"m8 c #46443f",
"gy c #464542",
"dr c #464749",
"cv c #464a4e",
"mH c #464b53",
"a5 c #464e5e",
"oa c #47453d",
"fd c #474542",
"fC c #474545",
"eO c #474642",
"g0 c #474644",
"jC c #474848",
"hd c #47494c",
"ds c #474a4e",
"mG c #474c54",
"oT c #474d56",
"bC c #474e5d",
"aB c #475060",
"c6 c #475162",
"f7 c #484743",
"hX c #484845",
"et c #484948",
"nb c #484b4f",
"nc c #484e58",
"aR c #485263",
"m6 c #494841",
"dU c #494845",
"df c #494949",
"db c #494b4b",
"do c #494c53",
".Q c #494f51",
"cJ c #495365",
"ny c #4a473f",
"mB c #4a4840",
"eu c #4a4845",
"kH c #4a4b4d",
"lu c #4a505b",
"bk c #4a5260",
"az c #4a5363",
"am c #4a5364",
".N c #4a5463",
"aC c #4a5464",
"k0 c #4b4942",
"m# c #4b4943",
"eS c #4b4947",
"nj c #4b4a41",
"jY c #4b4a44",
"jZ c #4b4a46",
"eT c #4b4b48",
"eR c #4b4b49",
"cf c #4b4c4d",
"eM c #4b4d4f",
"oS c #4b515b",
"b# c #4b535c",
"aj c #4b5464",
".5 c #4b5563",
"#C c #4b5565",
"bl c #4b5566",
"fG c #4c4a47",
"pf c #4c4b40",
"eP c #4c4b48",
"jE c #4c4b49",
"f# c #4c4b4a",
"eQ c #4c4c49",
"dg c #4c4c4a",
"jD c #4c4c4b",
"c3 c #4c4d4e",
"cg c #4c4e4e",
"c4 c #4c5054",
"#7 c #4c5567",
"ah c #4c5665",
".4 c #4c5767",
"ma c #4d4a41",
"nV c #4d4a42",
"mC c #4d4b42",
"lj c #4d4b44",
"fF c #4d4b46",
"jF c #4d4c46",
"gz c #4d4c48",
"cb c #4d5153",
"aS c #4d5363",
"ot c #4e4b42",
"o4 c #4e4b43",
"oc c #4e4c43",
"m7 c #4e4c44",
"jx c #4e4c48",
"lc c #4e4c4a",
"fH c #4e4d48",
"d5 c #4e4d49",
"kh c #4e4e4f",
"ca c #4e4f4e",
"dV c #4e545a",
"ok c #4e5560",
"#R c #4e5869",
"bD c #4e5a6d",
"oN c #4f4c43",
"js c #4f4c44",
"fe c #4f4d49",
"hY c #4f4e48",
"eU c #4f4e4a",
"em c #4f4f4b",
".T c #4f5b6c",
"m3 c #504d44",
"nk c #504d45",
"mL c #504d46",
"lk c #504e47",
"ev c #504e48",
"lL c #504f4d",
"nL c #505660",
"#B c #505a6c",
"g1 c #514e46",
"ff c #514e48",
"mA c #514f45",
"i5 c #514f4a",
"d7 c #514f4b",
"nE c #515047",
"lf c #51504e",
"kL c #515152",
"ce c #51565b",
"a6 c #515b6f",
".P c #515d6b",
"li c #525048",
"ea c #525a67",
".S c #525d6f",
"#N c #525d70",
"m4 c #534f45",
"jq c #535047",
"mz c #535147",
"fE c #53514a",
"fD c #53514b",
"d6 c #53514c",
"kK c #535251",
"c# c #535556",
"c2 c #53575e",
"c. c #536076",
"lT c #545146",
"nF c #545248",
"eV c #54524c",
"fh c #54534d",
"d8 c #54534e",
"bH c #545759",
"g2 c #555347",
"ht c #555349",
"fg c #55534c",
"kg c #55544c",
"fi c #55544e",
"jT c #555555",
"bd c #555654",
"dB c #555c66",
"dA c #555d67",
"oM c #565449",
"oe c #56544a",
"f8 c #56544b",
"lg c #565553",
"ki c #565758",
"dN c #565e6b",
"eb c #565e6d",
"ai c #566277",
"pg c #575449",
"od c #57544a",
"mM c #57544b",
"oO c #575549",
"nG c #57554a",
"nD c #57554b",
"fI c #57554d",
"iw c #57554e",
"cW c #57564f",
"ju c #575756",
"dW c #576373",
"#l c #576376",
"mO c #585449",
"m5 c #58554a",
"nz c #58564a",
"d3 c #585854",
"bX c #585c5f",
"dz c #58606b",
"dt c #586170",
".6 c #586579",
"cp c #58667f",
"lV c #59564b",
"jQ c #59564c",
"kP c #59574f",
"lh c #595750",
"jt c #595852",
"nC c #59594e",
"d4 c #595958",
"jU c #595b5c",
".8 c #596578",
"#3 c #59667b",
"bT c #59677d",
"mN c #5a574c",
"ld c #5a574d",
"dh c #5a5952",
"cz c #5a5953",
"cA c #5a5a53",
"ct c #5a5e61",
"dn c #5a616d",
"dw c #5a6a81",
"eW c #5b5850",
"iY c #5b5950",
"dE c #5b5951",
"da c #5b6470",
"dY c #5b697f",
"c7 c #5b6b85",
"du c #5b6b87",
"nA c #5c5a4d",
"nB c #5c5b4f",
"kf c #5c5b56",
"c1 c #5c6370",
"cK c #5c6b85",
"eX c #5d5a51",
"of c #5d5b4e",
"eY c #5d5b51",
"i1 c #5d5d5b",
"kj c #5d5d5d",
"cc c #5d6670",
"dm c #5d6675",
"dM c #5d6676",
"c8 c #5d6e8b",
"dv c #5d6f89",
"jr c #5e5a50",
"mu c #5e5b4e",
"kM c #5e5d59",
"dC c #5e636b",
"lX c #5f5c4f",
"jv c #5f5e5d",
"dy c #5f6879",
"bq c #5f6a77",
"dX c #5f6f86",
"jR c #605d51",
"dF c #605d52",
"h6 c #605d53",
"fj c #605e54",
"ch c #60615e",
"cs c #60666d",
".R c #606c7f",
".7 c #606d83",
"dx c #60708a",
"kI c #616058",
"jV c #61615f",
"en c #616568",
"bI c #61676f",
"cL c #617188",
"g3 c #626054",
"eN c #62605b",
"cd c #626c77",
"bY c #626c79",
"lY c #635f52",
"d9 c #636057",
"i2 c #63635f",
".A c #637080",
"lU c #646052",
"f9 c #646155",
"lW c #646253",
"cV c #646257",
"jw c #64625e",
"kk c #64635c",
"my c #656254",
"fJ c #656357",
"iy c #65645f",
"br c #65686c",
"cq c #656e7b",
"c9 c #657691",
"dG c #666256",
"iB c #666357",
"i3 c #66645f",
"iz c #66655e",
"bu c #666763",
"cP c #666d76",
"eZ c #67645a",
"mw c #676555",
"cO c #676f79",
"d# c #677488",
"mv c #686555",
"ew c #686557",
"kQ c #686559",
"cu c #686f76",
"cr c #686f78",
"iA c #69675e",
"de c #696965",
"dD c #696a67",
"ex c #6a6658",
"mx c #6b6858",
"i0 c #6b6961",
"g. c #6c695c",
"bt c #6d6e6f",
"h4 c #6e6b61",
"cU c #6e6c62",
"bL c #6e6f6e",
"iZ c #6f6c5d",
"i4 c #6f6c60",
"iu c #6f6d61",
"bK c #6f7070",
"bs c #6f7173",
"jW c #706e64",
"bJ c #707173",
"d. c #708099",
"dH c #716e60",
"g6 c #716e62",
"hu c #717067",
"di c #727062",
"fK c #727063",
"cN c #727f90",
"cM c #728196",
"gC c #737062",
"h1 c #747261",
"bZ c #767d87",
"km c #777465",
"h3 c #78766b",
"b0 c #787e86",
"ba c #798088",
"g# c #7a7970",
"bc c #7b8188",
"gb c #7e7b6b",
"bb c #7e858d",
"b1 c #7e868f",
"hy c #807c6f",
"hZ c #828176",
"iv c #847f6e",
"h5 c #848070",
"b2 c #848681",
"hz c #868171",
"kN c #878273",
"fM c #878370",
"ix c #8b887b",
"hx c #8b8a80",
"fk c #8e8b7c",
"hA c #918c7a",
"jX c #97937e",
"h2 c #97978d",
"g7 c #989484",
"kl c #9b9781",
"gD c #9d9a87",
"gc c #a09c89",
"g8 c #a8a48d",
"h0 c #aaa790",
"hw c #aba995",
"gA c #afafa1",
"fL c #b1ae9a",
"kO c #b7b398",
"ga c #bdbba3",
"g5 c #c0bda7",
"gB c #c7c5ad",
"hv c #d7d5c0",
"g4 c #d8d7c8",
"QtQtQtQtQtQtQtQtQtQtQtQtQtQtQtQtQtQtQtQtQtQtQtQtQtQtQtQtQtQtQtQtQtQtQtQtQtQtQtQtQtQtQtQtQtQtQtQtQtQtQtQtQtQtQtQtQtQtQtQtQtQtQtQt",
"QtQtQtQtQtQtQtQtQtQtQtQtQtQtQtQtQtQtQtQtQtQtQtQtQtQtQtQtQtQtQtQtQtQtQtQtQtQtQtQtQtQtQtQtQtQtQtQtQtQtQtQtQtQtQtQtQtQtQtQtQtQtQtQt",
"QtQtQtQtQtQtQtQtQtQtQtQtQtQtQtQtQtQtQtQtQtQtQtQtQtQtQtQtQtQtQtQtQtQtQtQtQtQtQtQtQtQtQtQtQtQtQtQtQtQtQtQtQtQtQtQtQtQtQtQtQtQtQtQt",
"QtQtQtQtQtQtQtQtQtQtQtQtQt.#.aQtQtQtQtQtQtQtQtQtQtQtQtQtQtQtQtQtQtQtQtQtQtQtQtQtQtQtQtQtQtQtQtQtQtQtQtQtQtQtQtQtQtQtQtQtQtQtQtQt",
"QtQtQtQtQtQtQtQtQtQtQtQtQt.b.cQtQtQtQt.d.e.f.g.h.iQtQtQtQtQtQtQtQtQtQtQtQtQtQtQtQtQtQtQtQtQtQtQtQtQtQtQtQtQtQtQtQtQtQtQtQtQtQtQt",
"QtQtQtQtQtQtQtQtQtQtQtQt.j.k.l.m.n.o.p.q.r.s.t.u.v.wQtQtQtQtQtQtQtQtQtQtQtQtQtQtQtQtQtQtQtQtQtQtQtQtQtQtQtQtQtQtQtQtQtQtQtQtQtQt",
"QtQtQtQtQtQtQtQtQtQtQt.x.y.z.A.B.C.D.E.F.G.H.I.J.K.LQtQtQtQtQtQtQtQtQtQtQtQtQtQtQtQtQtQtQtQtQtQtQtQtQtQtQtQtQtQtQtQtQtQtQtQtQtQt",
"QtQtQtQtQtQtQtQtQtQtQt.M.N.O.P.Q.R.S.T.U.V.W.X.Y.Z.0QtQtQtQtQtQtQtQtQtQtQtQtQtQtQtQtQtQtQtQtQtQtQtQtQtQtQtQtQtQtQtQtQtQtQtQtQtQt",
"QtQtQtQtQtQtQtQtQtQtQt.1.2.3.4.5.6.7.8.9#.###a#b#c#d#eQtQtQtQtQtQtQtQtQtQtQtQtQtQtQtQtQtQtQtQtQtQtQtQtQtQtQtQtQtQtQtQtQtQtQtQtQt",
"QtQtQtQtQtQtQtQtQtQtQt#f#g#h#i#j#k#l.8#m#n#o#p#q#r#s#t#uQtQtQtQtQtQtQtQtQtQtQtQtQtQtQtQtQtQtQtQtQtQtQtQtQtQtQtQtQtQtQtQtQtQtQtQt",
"QtQtQtQtQtQtQtQtQtQtQt#v#w#x#y#z#A#B#C#D#E#F#G#H#I#J#K#LQtQtQtQtQtQtQtQtQtQtQtQtQtQtQtQtQtQtQtQtQtQtQtQtQtQtQtQtQtQtQtQtQtQtQtQt",
"QtQtQtQtQtQtQtQtQtQtQt#M#N#j#O#P#Q#R#S#T#U#V#W#G#X#Y#Z#0#1QtQtQtQtQtQtQtQtQtQtQtQtQtQtQtQtQtQtQtQtQtQtQtQtQtQtQtQtQtQtQtQtQtQtQt",
"QtQtQtQtQtQtQtQtQtQtQt#2#3#N#4#5#6#7#8#9a.a#aaabaaacadaeafQtQtQtQtQtQtQtQtQtQtQtQtQtQtQtQtQtQtQtQtQtQtQtQtQtQtQtQtQtQtQtQtQtQtQt",
"QtQtQtQtQtQtQtQtQtQtQtagahaiajakalamanaoap#UaqarasatauavawQtQtQtQtQtQtQtQtQtQtQtQtQtQtQtQtQtQtQtQtQtQtQtQtQtQtQtQtQtQtQtQtQtQtQt",
"QtQtQtQtQtQtQtQtQtQtQtaxayazaAaB#5aCaDaEaFaGaHaIapaJaKaLaMQtQtQtQtQtQtQtQtQtQtQtQtQtQtQtQtQtQtQtQtQtQtQtQtQtQtQtQtQtQtQtQtQtQtQt",
"QtQtQtQtQtQtQtQtQtQtQtQtaNaOaPaQaRaSaTaEaparaUaVaWaXaYaZa0QtQtQtQtQtQtQtQtQtQtQtQtQtQtQtQtQtQtQtQtQtQtQtQtQtQtQtQtQtQtQtQtQtQtQt",
"QtQtQtQtQtQtQtQtQtQtQtQta1a2a3a4a5a6#ja7a8a9b.b#babbbcbdbeQtQtQtQtQtQtQtQtQtQtQtQtQtQtQtQtQtQtQtQtQtQtQtQtQtQtQtQtQtQtQtQtQtQtQt",
"QtQtQtQtQtQtQtQtQtQtQtQtbfbgbhbibjbkblbmbnbobpbqbrbsbtbubvQtQtQtQtQtQtQtQtQtQtQtQtQtQtQtQtQtQtQtQtQtQtQtQtQtQtQtQtQtQtQtQtQtQtQt",
"QtQtQtQtQtQtQtQtQtQtQtQtbwbxbybzbAbBbCbDbEbFbGbHbIbJbKbLbMbNQtQtQtQtQtQtQtQtQtQtQtQtQtQtQtQtQtQtQtQtQtQtQtQtQtQtQtQtQtQtQtQtQtQt",
"QtQtQtQtQtQtQtQtQtQtQtQtQtbOaVbPbQbRbSbTbUbVbWbXbYbZb0b1b2b3QtQtQtQtQtQtQtQtQtQtQtQtQtQtQtQtQtQtQtQtQtQtQtQtQtQtQtQtQtQtQtQtQtQt",
"QtQtQtQtQtQtQtQtQtQtQtQtQtb4b5b6b7b8b9c.c#cacbcccdcecfcgchcicj.fQtQtQtQtQtQtQtQtQtQtQtQtQtQtQtQtQtQtQtQtQtQtQtQtQtQtQtQtQtQtQtQt",
"QtQtQtQtQtQtQtQtQtQtQtQtQtQtckclcmcncocpcqcrcsctcucvcwcxcyczcAcBcCQtQtQtQtQtQtQtQtQtQtQtQtQtQtQtQtQtQtQtQtQtQtQtQtQtQtQtQtQtQtQt",
"QtQtQtQtQtQtQtQtQtQtQtQtcDcEcFcGcHcIcJcKcLcMcNcOcPcQcRcScTcUcVcWcXcYQtQtQtQtQtQtQtQtQtQtQtQtQtQtQtQtQtQtQtQtQtQtQtQtQtQtQtQtQtQt",
"QtQtQtQtQtQtQtQtQtQtQtcZc0c1c2c3c4c5c6c7c8c9d.d#dadbdcdcdddedfdgdhdidjQtQtQtQtQtQtQtQtQtQtQtQtQtQtQtQtQtQtQtQtQtQtQtQtQtQtQtQtQt",
"QtQtQtQtQtQtQtQtQtQtdkdldmdndodpdqdrdsdtdudvdwdxdydzdAdBdCdDdEdFdGdHdIdJQtQtQtQtQtQtQtQtQtQtQtQtQtQtQtQtQtQtQtQtQtQtQtQtQtQtQtQt",
"QtQtQtQtQtQtQtQtQtdKdLdMdNdOdPdQdRdSdTdUdVdWdXdYdZd0d1d2d3d4d5d6d7d8d9e.QtQtQtQtQtQtQtQtQtQtQtQtQtQtQtQtQtQtQtQtQtQtQtQtQtQtQtQt",
"QtQtQtQtQtQtQtQtQte#eaebecedeeefegeheiejekelemeneoepeqereseteuevdFewexeyezQtQtQtQtQtQtQtQtQtQtQtQtQtQtQtQtQtQtQtQtQtQtQtQtQtQtQt",
"QtQtQtQtQtQtQtQtQteAeBeCeDeEeFeGeHeIeJeKeLeMeNdEeOePeQeReSeTeUeVeWeXeYeZe0QtQtQtQtQtQtQtQtQtQtQtQtQtQtQtQtQtQtQtQtQtQtQtQtQtQtQt",
"QtQtQtQtQtQtQtQtQte1e2e3e4e5e4e6e7e8ege9f.f#fafbfcfddUfefeevfffgfhfifjfkflfmQtQtQtQtQtQtQtQtQtQtQtQtQtQtQtQtQtQtQtQtQtQtQtQtQtQt",
"QtQtQtQtQtQtQtQtQtQtfnfofpfqfrfsftfufvfwdSfxfyfzfAfBfCfDfEfFfGfHfIfJfKfLfMfNfOQtQtQtQtQtQtQtQtQtQtQtQtQtQtQtQtQtQtQtQtQtQtQtQtQt",
"QtQtQtQtQtQtQtQtQtQtfPfufQfRfSfTfUfVfWfXfYfZf0f1f2f3f4f5faf6f7f8f9g.g#gagbgcgdQtQtQtQtQtQtQtQtQtQtQtQtQtQtQtQtQtQtQtQtQtQtQtQtQt",
"QtQtQtQtQtQtQtQtgegfggeGghgigjgkglgmgngogpgqgrgsgtgugvgwfzgxgygzcWcVgAgBgCgDgEgFQtQtQtQtQtQtQtQtQtQtQtQtQtQtQtQtQtQtQtQtQtQtQtQt",
"QtQtQtQtQtQtQtgGgHgIgJgsgKefgLgMgNgOgPgQgReHgSgTgUgVgWgXgYgZg0g1g2g3g4g5g6g7g8g9h.QtQtQtQtQtQtQtQtQtQtQtQtQtQtQtQtQtQtQtQtQtQtQt",
"QtQtQtQtQtQtQth#hahbhchdhegkhfhghhgRhihjglhkhlhmhngkhoeghphqhrhshthuhvhwhxhyhzhAhBhCQtQtQtQtQtQtQtQtQtQtQtQtQtQtQtQtQtQtQtQtQtQt",
"QtQtQtQtQtQthDhEhFhGhHhIhJgigKhKhLaUhMgihNhOhPhQhRfUhShThUhVhWhXhYhZh0h1h2h3h4h5h6h7QtQtQtQtQtQtQtQtQtQtQtQtQtQtQtQtQtQtQtQtQtQt",
"QtQtQtQtQtQth8h9i.i#iaibicidieifigihiiijgSikilbygXiminioipiqirisitiuiviwixiyiziAiBiCiDQtQtQtQtQtQtQtQtQtQtQtQtQtQtQtQtQtQtQtQtQt",
"QtQtQtQtQtQtiEiFhGiGiHiIiJfeiKiLiMiNfTglfSiOiPfvfviQiRiSiTiUiViWiXiYiZd6i0i1i2i3i4i5i6i7QtQtQtQtQtQtQtQtQtQtQtQtQtQtQtQtQtQtQtQt",
"QtQtQtQtQtQti8i9glj.j#jajbjcjdhHeGjejfjgikhQjhjfhnjijjjkjljmjnjojpjqjrjsjtjujvjwhycVjxjyQtQtQtQtQtQtQtQtQtQtQtQtQtQtQtQtQtQtQtQt",
"QtQtQtQtQtQtjzgKhajAjBjCjDjEjFjGeHhlgigrjHjIfTjJhNeHjKjLjMjNiniljOjPjQjRjSjTjUjVjWjXjYjZj0QtQtQtQtQtQtQtQtQtQtQtQtQtQtQtQtQtQtQt",
"QtQtQtQtQtj1j2hegOj3hej4j5j6j7j8j9hhk.glhnfThRk#egkaaUkbkckdkciniTkeddkfkgkhkikjkkklkmknkokpQtQtQtQtQtQtQtQtQtQtQtQtQtQtQtQtQtQt",
"QtQtQtQtQtkqhkkrkseHeHktkukvkwkxkykzj.hokAe8gjiehTkBiOkCkdkDjJkEefkFkGkHkIkJkKkLkMkNkOkPkQkRkSQtQtQtQtQtQtQtQtQtQtQtQtQtQtQtQtQt",
"QtQtQtQtkThkiekUkVkEiokWktkXkYkZk0k1k2gjkseqksjJk3k4k5k6k7hOk8k9l.l#lalblcldlelflglhliljlilklllmlnlolplqlrlsQtQtQtQtQtQtQtQtQtQt",
"QtQtQtQtltlulvlwlxiklylzjhlAlBlClDlEgrgieflFlGjKhilHa#lylIlJfpkUkUjHilkslKlLlMlNlOlPlQfXlRcxlSlTlUlVlWlXlYlZl0l1l2l3QtQtQtQtQtQt",
"QtQtQtQtl4l5l6l7iIjbl8f3l9m.m#mambmclAhomdmefsmfa#kWmglJmhmimjmkk6jHgYmlmmiHmnmohqmompmqmrj5msmtmumvmwmxmymzmAmBmCmDmEQtQtQtQtQt",
"QtQtQtQtmFmGmHhhhjgjfVmImJmKmLmMmNmNmObVgjhjmPmQhimRmSkUe5mTa#aVmUmVjGmWmXhKgRmYaIinmZgvfZbVm0m1m2m3m4lVm5jQm6m7m8m3m9n.QtQtQtQt",
"QtQtQtn#nanbncjandnenfhLksngeJnhninjhtnkefhfihhQiPk7nlnmlHaunnnoiNnpnqgtl.e7lxnrmZfZnsm1ntnueknvnwnxnynznAnBnCnDnEnFnGnHnIQtQtQt",
"QtQtnJnKnLnM#njehRnNnOnPgQk3nQnRnSnTnUnVnWnXhnnYiPktfuark6aQnZn0n1n2iTfTn3ikk5ktmIn4n5n6n7mqn8mrn9nwo.o#oaobelocodoemzofogohQtQt",
"Qtoiojokolehomone5mRk7ooopiOiOkcjOoqorosotougNgjovfShMowoxa8oyozoAnmeFlxmRiOoBoCngjkgRoDoEnvoFn8oGoHfYkxoIoJoKoLotoMoNocoOoPQtQt",
"oQoRoSoToUoVoWoXl9esoYoZo0o1jOo2o2kcoqo3o4o5o6gLkBhgaVo7lIfQoumdo8n3o9oomghlp.n6nPjNoEkte7asn8p#pagvnwpbpcpdcRpeoJmCmao#pfpgphQt",
"pipjpkplpmpnpopppqprpsptpupvpwpxpypzpApBpCpDpEpFpGpHpIpJpKpLpMpHpNpOpPpQpRpSpTpUpVpWpXpYpZp0p1p2p3p4p5p6p7p8p9q.q#pCqaqbpCqcqdqe"};
